X: 5
T: Farewell To Erin
R: reel
M: 4/4
L: 1/8
K: Ador
A3 c e3 f|gedB GBdB|A3 c e3 f| gedf eAAG|A3 c e3 f|gedB d2 g2|edeg a2 ba|gedB BA A2:|


Tune 33	Setting 25494

